images/sprite-icons-messages.svg

<svg enable-background="new 0 0 2021 21" height="21" viewBox="0 0 2021 21" width="2021" xmlns="http://www.w3.org/2000/svg"><path d="m4.5 2.1h12v15.4h-12z" fill="#fff"/><path d="m0 0v21h21v-21zm11.9 15.7h-3v-2h3.1v2zm0-3.8h-3v-6.6h3.1v6.6z" fill="#c03"/><path d="m861-49.7h1z" fill="#fff"/><path d="m985.5 2.1h12v15.4h-12z"/><path d="m981 0v21h21v-21zm11.9 15.7h-3.1v-2h3.1zm0-3.8h-3.1v-6.6h3.1z" fill="#fc3"/><path d="m2004.5 2.1h12v15.4h-12z" fill="#fff"/><path d="m2000 0v21h21v-21zm11.9 15.7h-3.1v-2h3.1zm0-3.8h-3.1v-6.6h3.1z" fill="#693"/></svg>

<?xml version="1.0" encoding="utf-8"?>
<!-- Generator: Adobe Illustrator 20.0.0, SVG Export Plug-In . SVG Version: 6.00 Build 0)  -->
<svg version="1.1" id="Laag_1" xmlns="http://www.w3.org/2000/svg" xmlns:xlink="http://www.w3.org/1999/xlink" x="0px" y="0px"
	 width="2021px" height="21px" viewBox="0 0 2021 21" style="enable-background:new 0 0 2021 21;" xml:space="preserve">
<style type="text/css">
	.st0{fill:#FFFFFF;}
	.st1{fill:#CC0033;}
	.st2{fill:#FFCC33;}
	.st3{fill:#669933;}
</style>
<g>
	<rect x="4.5" y="2.1" class="st0" width="12" height="15.4"/>
	<path class="st1" d="M0,0v21h21V0H0z M11.9,15.7h-3v-2H12v2H11.9z M11.9,11.9h-3V5.3H12v6.6H11.9z"/>
</g>
<polygon class="st0" points="861,-49.7 862,-49.7 862,-49.7 "/>
<g>
	<rect x="985.5" y="2.1" width="12" height="15.4"/>
	<path class="st2" d="M981,0v21h21V0H981z M992.9,15.7h-3.1v-2h3.1V15.7z M992.9,11.9h-3.1V5.3h3.1V11.9z"/>
</g>
<g>
	<rect x="2004.5" y="2.1" class="st0" width="12" height="15.4"/>
	<path class="st3" d="M2000,0v21h21V0H2000z M2011.9,15.7h-3.1v-2h3.1V15.7z M2011.9,11.9h-3.1V5.3h3.1V11.9z"/>
</g>
</svg>
